usr/share/icons/biglinux-icons-material-dark/symbolic/actions/align-horizontal-right-to-anchor.svg

<svg xmlns="http://www.w3.org/2000/svg" viewBox="0 0 16 16">
<defs id="defs3051">
<style id="current-color-scheme" type="text/css">
.ColorScheme-Contrast{color:#dedede}
</style>
</defs>
<path d="M2 2v5h6V2zm8 0v12h1V2zm2 0v5h2V2zM3 3h4v3H3zM2 9v5h7V9zm1 1h5v3H3z" class="ColorScheme-Contrast" style="fill:currentColor;fill-opacity:1;stroke:none"/>
</svg>

<svg xmlns="http://www.w3.org/2000/svg" viewBox="0 0 16 16">
  <defs id="defs3051">
    <style type="text/css" id="current-color-scheme">
      .ColorScheme-Text {
        color:#dedede;
      }
      </style>
  </defs>
 <path style="fill:currentColor;fill-opacity:1;stroke:none" 
       d="M 2 2 L 2 7 L 8 7 L 8 2 L 2 2 z M 10 2 L 10 14 L 11 14 L 11 2 L 10 2 z M 12 2 L 12 7 L 14 7 L 14 2 L 12 2 z M 3 3 L 7 3 L 7 6 L 3 6 L 3 3 z M 2 9 L 2 14 L 9 14 L 9 9 L 2 9 z M 3 10 L 8 10 L 8 13 L 3 13 L 3 10 z "
     class="ColorScheme-Text"
     />
</svg>
